!!!OTL: 248. Jm Sommer, im Sommer da ist die schoenste Zeit.
!!!ARE: Europa, Mitteleuropa, Deutschland, Moseltal
!!!SCT: K2248
!!!TXL: @@DE
!!!YEM: Copyright 1995, estate of Helmut Schaffrath.
**kern	**text
*clefG2	*
*M2/4	*
*k[b-e-]	*
*B-:	*
{8f	Jm
=1	=1
4b-	Som-
8b-	-mer,
8cc	im
=2	=2
4dd	Som-
8dd}	-mer,
{8dd	da
=3	=3
8cc	iſt
8b-	die
8cc	ſchön
8dd	ſte
=4	=4
4b-	Ʒeit.
8r}	.
{8f	Da
=5	=5
4b-	ſin-
8b-	-gen
8cc	und
=6	=6
4dd	ſprin-
8dd}	-gen
{8dd	die
=7	=7
8cc	Kin-
8b-	-der
8cc	weit
8dd	und
=8	=8
4b-	breit.
8r}	.
{8cc	Das
=9	=9
4cc	Hü-
8a	-pfen*,
8cc	das
=10	=10
4cc	Hü-
8dd}	-pfen,
{8cc	das
=11	=11
4b-	muß
8g	man
8g	ver-
=12	=12
4a	-ſteh'n
8r}	.
{8f	da
=13	=13
4b-	muß
8b-	man,
8cc	da
=14	=14
4dd	muß
8dd}	man
{8dd	ſich
=15	=15
(8cc	drei-
8b-)	.
8cc	-mal
8dd	um-
=16	=16
4b-	-dreh'n.
8r}	.
==	==
!!!AGN: Kinder - Lied, Reigen, Tanz, Nachahmungs - Spiel
!!!ONB: ESAC (Essen Associative Code) Database: KINDER
!!!AMT: simple duple
!!!AIN: vox
!!!EED: Helmut Schaffrath
!!!EEV: 1.0
!!Aus dem Moselthale 1891.
!!!GTL: Zweites Buch. Kinderspiel: 2. Reigen und Tanzspiele. / E. Reigenspiele mit Nachahmungen.
!!!URL-scan: https://archive.org/details/DeutschesKinderliedUndKinderspiel/page/500/mode/1up
!!!ENC: Anna Maria Matuszewska
!!!EEV: 2024/04/09
*-	*-
